Obsidian-SemiLight/actions/22s/format-precision-more.svg

<svg viewBox="0 0 22 22" xmlns="http://www.w3.org/2000/svg"><path d="m7.5 3c-1.933 0-3.5 1.7909-3.5 4v1 2c0 2.2091 1.567 4 3.5 4s3.5-1.7909 3.5-4v-2-1c0-2.2091-1.567-4-3.5-4zm8 0c-1.933 0-3.5 1.7909-3.5 4v1 2c0 2.2091 1.567 4 3.5 4s3.5-1.7909 3.5-4v-2-1c0-2.2091-1.567-4-3.5-4zm-8 1c1.38071 0 2.5 1.3432 2.5 3v3c0 1.6569-1.11929 3-2.5 3s-2.5-1.3431-2.5-3v-3c0-1.6568 1.11929-3 2.5-3zm8 0c1.38071 0 2.5 1.3431 2.5 3v3c0 1.6569-1.11929 3-2.5 3s-2.5-1.3431-2.5-3v-3c0-1.6569 1.11929-3 2.5-3zm-12.5 9v1h1v-1z" fill="#4d4d4d"/><path d="m15 15v2h-2v1h2v2h1v-2h2v-1h-2v-2z" fill="#3daee9"/></svg>

<svg xmlns="http://www.w3.org/2000/svg" viewBox="0 0 22 22">
  <defs id="defs3051">
    <style type="text/css" id="current-color-scheme">
      .ColorScheme-Text {
        color:#4d4d4d;
      }
      .ColorScheme-Highlight {
        color:#3daee9;
      }
      </style>
  </defs>
 <path 
     style="fill:currentColor;fill-opacity:1;stroke:none" 
     d="M 7.5 3 C 5.567 3 4 4.7909 4 7 L 4 8 L 4 10 C 4 12.2091 5.567 14 7.5 14 C 9.433 14 11 12.2091 11 10 L 11 8 L 11 7 C 11 4.7909 9.433 3 7.5 3 z M 15.5 3 C 13.567 3 12 4.7909 12 7 L 12 8 L 12 10 C 12 12.2091 13.567 14 15.5 14 C 17.433 14 19 12.2091 19 10 L 19 8 L 19 7 C 19 4.7909 17.433 3 15.5 3 z M 7.5 4 C 8.88071 4 10 5.3432 10 7 L 10 10 C 10 11.6569 8.88071 13 7.5 13 C 6.11929 13 5 11.6569 5 10 L 5 7 C 5 5.3432 6.11929 4 7.5 4 z M 15.5 4 C 16.88071 4 18 5.3431 18 7 L 18 10 C 18 11.6569 16.88071 13 15.5 13 C 14.11929 13 13 11.6569 13 10 L 13 7 C 13 5.3431 14.11929 4 15.5 4 z M 3 13 L 3 14 L 4 14 L 4 13 L 3 13 z "
     class="ColorScheme-Text"
     />
 <path 
     style="fill:currentColor;fill-opacity:1;stroke:none" 
     d="M 15 15 L 15 17 L 13 17 L 13 18 L 15 18 L 15 20 L 16 20 L 16 18 L 18 18 L 18 17 L 16 17 L 16 15 L 15 15 z "
     class="ColorScheme-Highlight"
     />
</svg>
